src/topics/icons/openshift.svg

<svg height="237" preserveAspectRatio="xMidYMid" viewBox="0 0 256 237" width="256" xmlns="http://www.w3.org/2000/svg"><g fill="#da2430"><path d="m74.8392681 106.892926-40.8678534 14.870388c.5244189 6.552062 1.6519831 13.024128 3.2404773 19.365407l38.8171596-14.136456c-1.2443839-6.552062-1.6888068-13.319987-1.180895-20.100609"/><path d="m255.444071 61.7023618c-2.850655-5.8790791-6.147003-11.5613424-9.966499-16.9160027l-40.856426 14.8703879c4.755324 4.8632555 8.742432 10.3296563 12.007035 16.1757211l38.81716-14.1326459z"/><path d="m182.950275 61.4614413c-5.14058-4.4608621-10.946243-8.3103751-17.408625-11.3248661h-.00254c-37.941011-17.6880286-83.2086506-1.2316862-100.8966792 36.7220233-.9969407 2.1415528-1.8798697 4.306117-2.6538302 6.4876166-2.2076842 6.4230506-3.497307 12.9898749-3.9907473 19.5461949l-.1439238.05319c-.0037662.048035-.0074889.09607-.0111679.144104l-24.5955401 8.949808-15.8264849 5.849001c-.0022746-.029199-.0045386-.058398-.0067919-.087599l-.4339574.157908c-1.5364333-19.435245 1.7395978-39.5117293 10.5531374-58.4111276 1.1538888-2.4752098 2.3840677-4.8910739 3.6864439-7.2461023 29.0542475-54.1159305 95.1639994-76.7357534 150.9187484-50.3290579 11.53972 5.4679482 21.77273 12.6369015 30.556219 21.0729768 5.909474 5.4666104 11.183869 11.4879859 15.781195 17.9405466l-40.858964 14.8729274c-.210258-.2149023-.421842-.4287315-.634749-.6414678l-.113112.0418176c-1.25848-1.3069746-2.564746-2.5743577-3.918631-3.7978935z"/></g><path d="m19.2613217 193.896477-.0644265.023453c-8.5011738-11.970211-14.68880929-25.418445-18.25815949-39.572677l38.82477819-14.140265.0025396.00254c.0079979.041778.0160303.083549.0240973.125313l.2521092-.09324.0058426.01558c1.9941636 10.560641 6.145261 20.635213 12.1977219 29.493514 2.3077088 3.293217 4.8863168 6.414958 7.722421 9.326783l-.154192.056133c.0976128.102987.1955366.205719.2937708.308192l-40.4875295 14.970784c-.1201238-.171736-.2397818-.343774-.3589731-.51611z" fill="#e82429"/><path d="m173.465486 183.446858c-21.051552 13.017432-48.053099 15.532394-72.113603 4.312103-8.5113317-3.969331-15.926844-9.337959-22.1182889-15.694475l-40.7713502 14.843722c.1037469.145909.2078406.291597.3122806.437064l-.0201765.007461c11.2100735 16.016617 26.5022032 29.404047 45.2668069 38.298489 40.4693001 19.16316 86.3867721 12.501076 119.6343211-13.284422 14.88801-11.151506 27.316519-26.015439 35.712551-44.018959 8.818619-18.895589 12.075604-38.964454 10.515045-58.384462l-1.135608.413206c-.015354-.208011-.031247-.415949-.047679-.623814l-40.489477 14.957152.001947.003895c-.644637 8.923655-2.862892 17.876523-6.806672 26.459358-6.314384 13.753363-16.163571 24.708959-27.940097 32.273682z" fill="#da2430"/><path d="m218.552379 75.1291912.607107-.2209955v-.0012698c6.386991 13.1422179 10.285215 27.4272371 11.453411 42.0550971l-40.77262 14.833564c.007539-.101158.014872-.202313.021997-.303464l-.771023.28486c1.110101-15.087638-2.274734-30.093478-9.433912-43.1225596l38.547774-14.2501926.001947-.003895c.11593.2425614.231037.4855149.345319.7288554z" fill="#e82429"/><path d="m74.8906707 106.654031-40.5810117 14.996102c.5199947 6.609971 1.6398335 13.136198 3.2192932 19.531938l38.5458264-14.257983c-1.2464293-6.621656-1.6943649-13.438066-1.1685275-20.273952" fill="#c22035"/><path d="m254.22692 61.0828228c-2.829784-5.9283294-6.105556-11.6580091-9.897428-17.0585537l-40.571274 14.9961027c4.720851 4.9058679 8.680212 10.4174224 11.920928 16.3145912l38.541931-14.2560353z" fill="#c22035"/><path d="m34.3084904 121.652665 40.481687-14.828613-.1655414 8.132951-39.0560834 14.748764-1.2659048-8.062839z" fill="#ac223b"/><path d="m203.766009 58.8974817 41.112691-14.1080218 4.272915 6.4483242-39.946111 14.1216545-5.433653-6.465852z" fill="#ac223b"/><path d="m38.7638909 187.20102 40.5303756-14.748764 12.2578533 11.564526-42.5032395 15.956243-10.2830418-12.7759z" fill="#b92135"/><path d="m249.380647 109.861639-41.165276 14.844194-3.032328 16.478185 43.891839-15.642688.311608-15.677743z" fill="#b92135"/></svg>

<?xml version="1.0" encoding="UTF-8" standalone="no"?>
<svg width="256px" height="237px" viewBox="0 0 256 237" version="1.1" xmlns="http://www.w3.org/2000/svg" xmlns:xlink="http://www.w3.org/1999/xlink" preserveAspectRatio="xMidYMid">
	<g>
		<path d="M74.8392681,106.892926 L33.9714147,121.763314 C34.4958336,128.315376 35.6233978,134.787442 37.211892,141.128721 L76.0290516,126.992265 C74.7846677,120.440203 74.3402448,113.672278 74.8481566,106.891656" fill="#DA2430"></path>
		<path d="M255.444071,61.7023618 C252.593416,55.8232827 249.297068,50.1410194 245.477572,44.7863591 L204.621146,59.656747 C209.37647,64.5200025 213.363578,69.9864033 216.628181,75.8324681 L255.445341,61.6998222 L255.444071,61.7023618 L255.444071,61.7023618 Z" fill="#DA2430"></path>
		<g>
			<path d="M182.950275,61.4614413 C177.809695,57.0005792 172.004032,53.1510662 165.54165,50.1365752 L165.53911,50.1365752 C127.598099,32.4485466 82.3304594,48.904889 64.6424308,86.8585985 C63.6454901,89.0001513 62.7625611,91.1647155 61.9886006,93.3462151 C59.7809164,99.7692657 58.4912936,106.33609 57.9978533,112.89241 L57.8539295,112.9456 C57.8501633,112.993635 57.8464406,113.04167 57.8427616,113.089704 L33.2472215,122.039512 L17.4207366,127.888513 C17.418462,127.859314 17.416198,127.830115 17.4139447,127.800914 L16.9799873,127.958822 C15.443554,108.523577 18.7195851,88.4470927 27.5331247,69.5476944 C28.6870135,67.0724846 29.9171924,64.6566205 31.2195686,62.3015921 C60.2738161,8.1856616 126.383568,-14.4341613 182.138317,11.9725342 C193.678037,17.4404824 203.911047,24.6094357 212.694536,33.045511 C218.60401,38.5121214 223.878405,44.5334969 228.475731,50.9860576 L187.616767,65.858985 C187.406509,65.6440827 187.194925,65.4302535 186.982018,65.2175172 L186.868906,65.2593348 C185.610426,63.9523602 184.30416,62.6849771 182.950275,61.4614413 Z" fill="#DA2430"></path>
			<path d="M19.2613217,193.896477 L19.1968952,193.91993 C10.6957214,181.949719 4.50808591,168.501485 0.938735714,154.347253 L39.7635139,140.206988 L39.7660535,140.209528 C39.7740514,140.251306 39.7820838,140.293077 39.7901508,140.334841 L40.04226,140.241601 L40.0481026,140.257181 C42.0422662,150.817822 46.1933636,160.892394 52.2458245,169.750695 C54.5535333,173.043912 57.1321413,176.165653 59.9682455,179.077478 L59.8140535,179.133611 C59.9116663,179.236598 60.0095901,179.33933 60.1078243,179.441803 L19.6202948,194.412587 C19.500171,194.240851 19.380513,194.068813 19.2613217,193.896477 Z" fill="#E82429"></path>
			<path d="M173.465486,183.446858 C152.413934,196.46429 125.412387,198.979252 101.351883,187.758961 C92.8405513,183.78963 85.425039,178.421002 79.2335941,172.064486 L38.4622439,186.908208 C38.5659908,187.054117 38.6700845,187.199805 38.7745245,187.345272 L38.754348,187.352733 C49.9644215,203.36935 65.2565512,216.75678 84.0211549,225.651222 C124.490455,244.814382 170.407927,238.152298 203.655476,212.3668 C218.543486,201.215294 230.971995,186.351361 239.368027,168.347841 C248.186646,149.452252 251.443631,129.383387 249.883072,109.963379 L248.747464,110.376585 C248.73211,110.168574 248.716217,109.960636 248.699785,109.752771 L208.210308,124.709923 L208.212255,124.713818 C207.567618,133.637473 205.349363,142.590341 201.405583,151.173176 C195.091199,164.926539 185.242012,175.882135 173.465486,183.446858 Z" fill="#DA2430"></path>
			<path d="M218.552379,75.1291912 L219.159486,74.9081957 L219.159486,74.9069259 C225.546477,88.0491438 229.444701,102.334163 230.612897,116.962023 L189.840277,131.795587 C189.847816,131.694429 189.855149,131.593274 189.862274,131.492123 L189.091251,131.776983 C190.201352,116.689345 186.816517,101.683505 179.657339,88.6544234 L218.205113,74.4042308 L218.20706,74.4003358 C218.32299,74.6428972 218.438097,74.8858507 218.552379,75.1291912 Z" fill="#E82429"></path>
		</g>
		<path d="M74.8906707,106.654031 L34.309659,121.650133 C34.8296537,128.260104 35.9494925,134.786331 37.5289522,141.182071 L76.0747786,126.924088 C74.8283493,120.302432 74.3804137,113.486022 74.9062511,106.650136" fill="#C22035"></path>
		<path d="M254.22692,61.0828228 C251.397136,55.1544934 248.121364,49.4248137 244.329492,44.0242691 L203.758218,59.0203718 C208.479069,63.9262397 212.43843,69.4377942 215.679146,75.334963 L254.221077,61.0789277 L254.22692,61.0828228 L254.22692,61.0828228 Z" fill="#C22035"></path>
		<path d="M34.3084904,121.652665 L74.7901774,106.824052 L74.624636,114.957003 L35.5685526,129.705767 L34.3026478,121.642928 L34.3084904,121.652665 L34.3084904,121.652665 Z" fill="#AC223B"></path>
		<path d="M203.766009,58.8974817 L244.8787,44.7894599 L249.151615,51.2377841 L209.205504,65.3594386 L203.771851,58.8935866 L203.766009,58.8974817 L203.766009,58.8974817 Z" fill="#AC223B"></path>
		<path d="M38.7638909,187.20102 L79.2942665,172.452256 L91.5521198,184.016782 L49.0488803,199.973025 L38.7658385,187.197125 L38.7638909,187.20102 L38.7638909,187.20102 Z" fill="#B92135"></path>
		<path d="M249.380647,109.861639 L208.215371,124.705833 L205.183043,141.184018 L249.074882,125.54133 L249.38649,109.863587 L249.380647,109.861639 L249.380647,109.861639 Z" fill="#B92135"></path>
	</g>
</svg>
